X: 4742
T: Boys Of Ballycastle, The
R: hornpipe
M: 4/4
K: Aminor
|:ABcB AGAG|EGAG A/B/c E2|ED C2 CDED|EG A2 D2 D2|
cded cBcB|AGAG A/B/c E2|EDCB, CDEF|ED C2 A,2 A,2:|
|:cB A2 E2 E2|cBAE ED E2|cBAG ABcB|cdeA AG A2|
cded cBcB|AGAG A/B/c E2|ED C2 CDEF|ED C2 A,2 A,2:|

